X:1
T:Puigcerdà, 10.10.10.10 D
T:Puigcerdà, 10.10.10.10 D
T:Herbert Howard Booth, 1890
T:Public Domain Courtesy of the Cyber Hymnal™
C:Herbert Howard Booth, 1890
Z:Public Domain
Z:Courtesy of the Cyber Hymnal™
%%score ( 1 2 ) ( 3 4 )
L:1/8
Q:1/4=123
M:3/4
K:G
V:1 treble 
V:2 treble 
V:3 bass 
V:4 bass 
V:1
"^Moderato" [B,D]3 [CE] [B,D]2 | [Dc]4 [DB]2 | [B,D]3 [CE] D2 | [DA]4 [DG]2 | [DG]3 [DF] G2 | %5
 [Gc]3 [Gd] [Ge]2 | [Gd]3 [GB] G2 | [FA]4 z2 | [GB]3 [Gc] [GB]2 | [Gd]4 [DB]2 | [DB]3 [DA] [DG]2 | %11
 [CE]4 [EG]2 | [Gc]3 [Gd] [Ge]2 | [Gd]2 [DG]2 [EA]2 | [DB]2 [DB]2 [CA]2 | [B,G]4 z2 || %16
"^Refrain" [B,D]2 [^A,^C]2"^Allegretto" [B,D]2 | [CE]4 [B,D]2 |!<(! [DG]2 [DB]2 [Dd]2!<)! | %19
!>(! [Ed]4 [Ec]2!>)! | [Dc]2 [DB]2 [DA]2 | [DB]4 [DG]2 | [^CG]2 [CF]2 [CG]2 | A6 | %24
 [B,D]2 [^A,^C]2 [B,D]2 | [CE]4 [B,D]2 |!<(! [DG]2 [DB]2 [Dd]2!<)! |!>(! [Ed]4 [Ec]2!>)! | %28
!<(! [Gc]2 [Gd]2 [Ge]2!<)! | [Gd]2 G2 [GA]2 |!>(! [GB]2 [Ac]2 [FA]2!>)! | G4 z2 |] %32
V:2
 x6 | x6 | x4 D2 | x6 | x4 G2 | x6 | x4 G2 | x6 | x6 | x6 | x6 | x6 | x6 | x6 | x6 | x6 || x6 | %17
 x6 | x6 | x6 | x6 | x6 | x6 | D4 C2 | x6 | x6 | x6 | x6 | x6 | x2 G2 x2 | x6 | G4 x2 |] %32
V:3
 G,3 G, G,2 | [F,A,]4 G,2 | G,3 G, [G,B,]2 | [F,C]4 [G,B,]2 | [G,B,]3 [A,C] [B,D]2 | %5
 [CE]3 [CD] C2 | [G,B,]3 [G,D] [E,^C]2 | [D,D]4 z2 | [G,D]3 [G,E] [G,D]2 | [G,B,]4 G,2 | %10
 [G,,G,]3 [A,,F,] [B,,G,]2 | [C,G,]4 [C,C]2 | [E,C]3 [D,B,] [C,C]2 | [G,B,]2 [B,,G,]2 [C,G,]2 | %14
 [D,G,]2 [D,F,]2 [D,F,]2 | [G,,G,]4 z2 || [G,,G,]2 [G,,G,]2 [G,,G,]2 | [G,,G,]4 [G,,G,]2 | %18
 [G,B,]2 G,2 [B,,G,]2 | [C,G,]4 [C,G,]2 | [D,F,]2 [D,G,]2 [D,F,]2 | G,4 [G,B,]2 | %22
 [E,A,]2 [E,A,]2 [E,G,]2 | [D,F,]6 | [G,,G,]2 [G,,G,]2 [G,,G,]2 | [G,,G,]4 [G,,G,]2 | %26
 [G,B,]2 G,2 [B,,G,]2 | [C,G,]4 [C,G,]2 | [E,C]2 [D,B,]2 [C,C]2 | [G,B,]2 [B,D]2 [CE]2 | %30
 D2 [D,D]2 [D,C]2 | [G,B,]4 z2 |] %32
V:4
 G,3 G, G,2 | x4 G,2 | G,3 G, x2 | x6 | x6 | x4 C2 | x6 | x6 | x6 | x4 G,2 | x6 | x6 | x6 | x6 | %14
 x6 | x6 || x6 | x6 | x2 G,2 x2 | x6 | x6 | G,4 x2 | x6 | x6 | x6 | x6 | x2 G,2 x2 | x6 | x6 | x6 | %30
 D2 x4 | x6 |] %32

